img/lab-logo.svg

<svg fill="none" height="33" viewBox="0 0 31 33" width="31" xmlns="http://www.w3.org/2000/svg"><g fill="#008699"><path d="m20.7891 7.90868h-10.6075v-2.50691c0-1.63946 1.6539-4.918372 5.2718-4.918372 3.9243 0 5.3144 3.451182 5.3357 5.090642z"/><path clip-rule="evenodd" d="m20.1058 22.917h6.6953l.9198 2.1382h-5.8148l-.7128 1.5757h7.1841l2.3447 5.3646h-14.4994zm.1678 5.833h6.3594l.6939 1.5761h-7.7468z" fill-rule="evenodd"/><path clip-rule="evenodd" d="m.1875 32.0183 3.95286-9.1247h6.61904l3.9606 9.1247h-2.6665l-.9547-2.1821h-7.25563l-.94426 2.1821zm5.67951-6.9841h3.17578l1.16491 2.6528h-5.50653z" fill-rule="evenodd"/><path d="m8.01758 21.8517h-3.41211l5.54433-12.82631h10.6116l5.5962 12.82631h-3.4358l-4.1502-9.5968h-6.6415z"/></g></svg>

<svg width="31" height="33" viewBox="0 0 31 33" fill="none" xmlns="http://www.w3.org/2000/svg">
<path d="M20.7891 7.90868H10.1816V5.40177C10.1816 3.76231 11.8355 0.483398 15.4534 0.483398C19.3777 0.483398 20.7678 3.93458 20.7891 5.57404V7.90868Z" fill="#008699"/>
<path fill-rule="evenodd" clip-rule="evenodd" d="M20.1058 22.917H26.8011L27.7209 25.0552H21.9061L21.1933 26.6309H28.3774L30.7221 31.9955H16.2227L20.1058 22.917ZM20.2736 28.75H26.633L27.3269 30.3261H19.5801L20.2736 28.75Z" fill="#008699"/>
<path fill-rule="evenodd" clip-rule="evenodd" d="M0.1875 32.0183L4.14036 22.8936H10.7594L14.72 32.0183H12.0535L11.0988 29.8362H3.84317L2.89891 32.0183H0.1875ZM5.86701 25.0342H9.04279L10.2077 27.687H4.70117L5.86701 25.0342Z" fill="#008699"/>
<path d="M8.01758 21.8517H4.60547L10.1498 9.02539H20.7614L26.3576 21.8517H22.9218L18.7716 12.2549H12.1301L8.01758 21.8517Z" fill="#008699"/>
</svg>
